src/shared/assets/svgs/panda.svg

<svg width="120" height="112" viewBox="0 0 120 112" fill="none" xmlns="http://www.w3.org/2000/svg">
<path d="M35.3646 111.057C35.25 110.943 35.1562 110.31 35.1562 109.652V108.455H29.375H23.5938V106.894V105.333H20.7812H17.9688V103.772V102.211H16.4062H14.8438V100.979V99.7475L13.3594 99.6524L11.875 99.5572L11.7188 97.9961L11.5625 96.435L10.2344 96.339C8.91271 96.2435 8.90625 96.237 8.90625 95.0121V93.7812H7.35548H5.8047L5.71485 90.8932L5.625 88.0052L4.45312 87.9083L3.28125 87.8114V83.4592V79.107H1.71875H0.15625V67.5721V56.0371L1.64062 55.942L3.125 55.8468L3.20987 49.8366L3.29475 43.8264H4.52893H5.76311L5.85031 39.6896L5.9375 35.5527L7.42188 35.4575L8.90625 35.3624V32.5695V29.7767H10.3016H11.6969L11.7859 26.5764L11.875 23.3762H13.2812H14.6875V26.4984V29.6206L13.2151 29.7152L11.7426 29.8099L11.6526 32.5252L11.5625 35.2405L10.2275 35.3368L8.89259 35.4331L8.97755 41.2689C9.04145 45.6584 9.15931 47.1144 9.45312 47.1437C9.66797 47.1652 10.1868 47.2003 10.6061 47.2218C11.253 47.2549 11.3832 47.4382 11.4655 48.4316C11.5614 49.5891 11.5792 49.6035 13.0304 49.697L14.4984 49.7914L14.5929 51.258L14.6875 52.7246L19.1406 52.8113L23.5938 52.8979V54.4504V56.0029H30.607H37.6203L37.7164 57.3298L37.8125 58.6568H59.8438H81.875L81.9711 57.3298L82.0672 56.0029H89.3758H96.6845L96.7798 54.5199L96.875 53.0368L101.016 52.9497L105.156 52.8626V51.3106V49.7586H106.701H108.245L108.341 48.4316C108.437 47.1077 108.44 47.1047 109.688 47.1047H110.938L111.023 41.2338L111.108 35.3629L112.585 35.4578L114.062 35.5527L114.112 39.6115L114.162 43.6703L115.44 43.7663L116.719 43.8624V49.9326V56.0029H118.281H119.844V67.5549V79.107H118.281H116.719V83.4592V87.8114L115.547 87.9083L114.375 88.0052L114.219 90.8151L114.062 93.6251L112.5 93.7812C110.957 93.9353 110.936 93.9517 110.842 95.0903C110.751 96.1737 110.676 96.2491 109.592 96.3392C108.452 96.4338 108.436 96.4546 108.281 97.9961L108.125 99.5572L106.641 99.6524L105.156 99.7475V100.979C105.156 102.205 105.151 102.211 103.923 102.211H102.69L102.595 103.694L102.5 105.177L99.6094 105.267L96.7188 105.357V106.899V108.442L90.7031 108.527L84.6875 108.612L84.5914 109.938L84.4953 111.265H60.0341C46.5805 111.265 35.4792 111.172 35.3646 111.057ZM84.5923 106.972L84.6875 105.489L90.7031 105.405L96.7188 105.32V103.765V102.211H98.125H99.5312V100.979V99.7475L101.016 99.6524L102.5 99.5572L102.595 98.0742L102.69 96.5911H103.923H105.156V89.4101V82.2292H103.906H102.656V80.6681V79.107H101.094H99.5312V77.5823C99.5312 76.2484 99.4433 76.0411 98.8281 75.9257C98.4414 75.8532 95.1432 75.8017 91.4987 75.8113L84.8723 75.8287L84.7799 74.5798L84.6875 73.331L78.9844 73.2459L73.2812 73.1608V71.6067V70.0527H60H46.7188V71.6138V73.1749H40.9555H35.1922L35.0961 74.4646L35 75.7543L28.4375 75.7203C24.8281 75.7016 21.5657 75.768 21.1877 75.8679C20.6238 76.0168 20.4835 76.3099 20.4064 77.5001L20.3125 78.9509L18.9619 79.048L17.6114 79.1451L17.703 80.6091L17.7947 82.073L16.2411 82.2292L14.6875 82.3853V89.4101V96.435L16.2904 96.5281L17.8933 96.6212L17.8325 97.777C17.7425 99.4904 17.9059 99.7133 19.2522 99.7133C20.4632 99.7133 20.4688 99.719 20.4688 100.962V102.211H22.0312H23.5938V103.772V105.333H29.375H35.1562V106.894V108.455H59.8266H84.497L84.5923 106.972ZM23.8454 39.5384L23.75 38.0504L22.2656 37.9553L20.7812 37.8601V34.1306C20.7812 32.0794 20.7778 30.2957 20.7736 30.1669C20.7694 30.0382 21.4373 29.8625 22.258 29.7767L23.75 29.6206L23.8392 26.5946L23.9285 23.5687L25.0892 23.4725C26.2138 23.3792 26.253 23.3348 26.3461 22.0493L26.4422 20.7224H27.9696H29.497L29.5923 19.2393L29.6875 17.7563H36.875H44.0625L44.0848 19.1613L44.107 20.5663L45.4129 20.6623L46.7188 20.7583V28.0595V35.3607L45.3906 35.4567C44.0704 35.5521 44.0628 35.5597 44.1156 36.7235L44.1686 37.8943H42.6371C41.2827 37.8943 41.084 37.9806 40.9181 38.641C40.8149 39.0517 40.7771 39.7191 40.834 40.1241L40.9375 40.8604L32.4392 40.9434L23.9409 41.0265L23.8454 39.5384ZM41.032 28.1375L40.9375 26.4984H39.375H37.8125L37.7136 27.702C37.5607 29.5608 37.7505 29.7767 39.5378 29.7767H41.1264L41.032 28.1375ZM78.9062 39.4554V37.8943H77.6562H76.4062V36.6454V35.3966H74.8438H73.2812V28.0595V20.7224H74.8438H76.4062V19.1553V17.5883L83.3594 17.6723L90.3125 17.7563L90.4071 19.2229L90.5016 20.6895L91.9696 20.784L93.4375 20.8785L93.5336 22.2054L93.6297 23.5323H95.1742H96.7188V26.6545V29.7767H97.9688H99.2188V33.8355V37.8943H97.9688H96.7188V39.4554V41.0165H87.8125H78.9062V39.4554ZM82.0312 28.0595V26.3423H80.4688H78.9062V28.0595V29.7767H80.4688H82.0312V28.0595ZM55.7812 33.8534V32.2744H57.0312C58.2781 32.2744 58.2812 32.2713 58.2812 31.0444C58.2812 29.8484 58.2488 29.8117 57.1094 29.7175L55.9375 29.6206L55.8479 26.5673L55.7584 23.514L59.8783 23.6012L63.9982 23.6884L64.0303 26.6545L64.0625 29.6206L62.7344 29.7166C61.4163 29.8118 61.4062 29.8217 61.4062 31.0255C61.4062 32.2294 61.4163 32.2392 62.7344 32.3345L64.0625 32.4305L64.1577 33.9135L64.253 35.3966H62.8296H61.4062V33.8184V32.2402L59.9219 32.3354L58.4375 32.4305V33.8355V35.2405L57.1094 35.3365L55.7812 35.4325V33.8534ZM108.281 32.6037V29.8109L106.797 29.7157L105.312 29.6206L105.223 26.5852C105.137 23.6428 105.156 23.5452 105.848 23.3981C106.241 23.3146 106.914 23.2755 107.344 23.3113C108.116 23.3754 108.126 23.4146 108.214 26.5764L108.303 29.7767H109.542H110.781V32.5866V35.3966H109.531H108.281V32.6037ZM14.8438 21.9712V20.7224H16.4062H17.9688V19.1613V17.6002H19.2188H20.4688V14.6341V11.6681H17.6472H14.8256L14.9128 7.5312L15 3.39432H16.4062H17.8125L17.9073 1.74623L18.002 0.0981445L22.126 0.185145L26.25 0.272146L26.3367 4.72124L26.4234 9.17033H27.9773H29.5312V7.60925V6.04816H33.75H37.9688V4.79929V3.55043H43.9062H49.8438V4.79929V6.04816H43.9234H38.003L37.9077 7.5312L37.8125 9.01423L33.6719 9.10134L29.5312 9.18846V10.4283V11.6681H27.9688H26.4062V13.2112V14.7543L25.0781 14.8503C23.7565 14.9459 23.7495 14.9528 23.6539 16.2733L23.5578 17.6002H22.0133H20.4688V19.1613V20.7224H19.2188H17.9688V21.9712V23.2201H16.4062H14.8438V21.9712ZM102.656 21.9712V20.7224H103.906H105.156V21.9712V23.2201H103.906H102.656V21.9712ZM99.5312 19.1442V17.566L101.016 17.6611C102.303 17.7437 102.514 17.8538 102.604 18.4906C102.661 18.8944 102.623 19.5617 102.52 19.9736C102.356 20.6245 102.149 20.7224 100.932 20.7224H99.5312V19.1442ZM96.8786 17.2099C96.8055 16.9953 96.7044 16.3982 96.6541 15.883C96.5681 15.0039 96.4723 14.9405 95.0946 14.8519L93.6266 14.7574L93.5321 13.2908L93.4375 11.8242L91.9531 11.729L90.4688 11.6339V10.4021V9.17033H86.25H82.0312V7.61629V6.06225L76.3281 5.97715L70.625 5.89206L70.528 4.72124C70.4721 4.04674 70.5715 3.54703 70.7624 3.54242C70.9446 3.53802 73.5195 3.53006 76.4844 3.52475L81.875 3.51508L81.9711 4.78162L82.0672 6.04816H86.268H90.4688V7.60925V9.17033H92.0227H93.5766L93.6633 4.72124L93.75 0.272146L98.0469 0.18528C101.359 0.11833 102.351 0.189907 102.377 0.497497C102.396 0.716993 102.42 1.38832 102.433 1.98934C102.458 3.26639 102.758 3.53914 104.141 3.54565L105.156 3.55042V7.59753V11.6446L102.266 11.7344L99.375 11.8242L99.2851 14.7122L99.1953 17.6002H98.1035C97.503 17.6002 96.9518 17.4246 96.8786 17.2099ZM49.9048 1.75518L50 0.272146H60.1562H70.3125L70.4077 1.75518L70.503 3.23821H60.1562H49.8095L49.9048 1.75518Z" fill="#3B3B3F"/>
</svg>

<svg width="120" height="112" fill="none" xmlns="http://www.w3.org/2000/svg"><path d="M35.365 111.057c-.115-.114-.209-.747-.209-1.405v-1.197H23.594v-3.122h-5.625v-3.122h-3.125v-2.463l-1.485-.096-1.484-.095-.156-1.56-.156-1.562-1.329-.096c-1.321-.096-1.328-.102-1.328-1.327v-1.23H5.805l-.09-2.889-.09-2.888-1.172-.097-1.172-.097v-8.704H.156v-23.07l1.485-.095 1.484-.095.085-6.01.085-6.01h2.468l.087-4.137.088-4.137 1.484-.095 1.484-.096v-5.585h2.791l.089-3.2.089-3.2h2.812v6.244l-1.472.094-1.472.095-.09 2.715-.09 2.715-1.336.097-1.334.096.085 5.836c.063 4.39.181 5.845.475 5.875.215.021.734.056 1.153.078.647.033.777.216.86 1.21.095 1.157.113 1.171 1.564 1.265l1.468.094.095 1.467.095 1.467 4.453.086 4.453.087v3.105H37.62l.096 1.327.096 1.327h44.063l.096-1.327.096-1.327h14.617l.096-1.483.095-1.483 4.141-.087 4.14-.087v-3.104h3.089l.096-1.327c.096-1.324.099-1.327 1.347-1.327h1.25l.085-5.871.085-5.871 1.477.095 1.477.095.05 4.059.05 4.058 1.278.096 1.279.096v12.14h3.125v23.105h-3.125v8.704l-1.172.097-1.172.097-.156 2.81-.157 2.81-1.562.156c-1.543.154-1.564.17-1.658 1.31-.091 1.083-.166 1.158-1.25 1.248-1.14.095-1.156.116-1.311 1.657l-.156 1.561-1.484.095-1.485.096v1.231c0 1.226-.005 1.232-1.233 1.232h-1.233l-.095 1.483-.095 1.483-2.89.09-2.891.09v3.085l-6.016.085-6.016.085-.096 1.326-.096 1.327h-24.46c-13.454 0-24.556-.093-24.67-.208Zm49.227-4.085.096-1.483 6.015-.084 6.016-.085v-3.109h2.812v-2.463l1.485-.096 1.484-.095.095-1.483.095-1.483h2.466V82.23h-2.5v-3.122h-3.125v-1.525c0-1.334-.088-1.54-.703-1.656-.387-.073-3.685-.124-7.33-.115l-6.626.018-.092-1.25-.093-1.248-5.703-.085-5.703-.085v-3.108H46.72v3.122H35.192l-.096 1.29-.096 1.29-6.563-.035c-3.609-.018-6.871.048-7.25.148-.563.149-.704.442-.78 1.632l-.095 1.45-1.35.098-1.35.097.091 1.464.092 1.464-1.554.156-1.553.156v14.05l1.602.093 1.603.093-.06 1.156c-.09 1.713.073 1.936 1.42 1.936 1.21 0 1.216.006 1.216 1.249v1.249h3.125v3.122h11.562v3.122h49.341l.095-1.483ZM23.845 39.538l-.095-1.488-1.484-.095-1.485-.095v-3.73c0-2.05-.003-3.834-.007-3.963-.005-.129.663-.305 1.484-.39l1.492-.156.09-3.026.088-3.026 1.161-.096c1.125-.094 1.164-.138 1.257-1.424l.096-1.327H29.497l.095-1.483.096-1.483h14.375l.022 1.405.022 1.405 1.306.096 1.306.096V35.36l-1.328.097c-1.32.095-1.328.103-1.275 1.267l.053 1.17h-1.532c-1.354 0-1.553.087-1.719.747a4.64 4.64 0 0 0-.084 1.483l.103.736-8.498.083-8.498.084-.096-1.489Zm17.187-11.4-.094-1.64h-3.126l-.098 1.204c-.153 1.859.037 2.075 1.824 2.075h1.588l-.094-1.64Zm37.874 11.317v-1.56h-2.5v-2.498h-3.125V20.722h3.125v-3.134l6.953.084 6.954.084.094 1.467.095 1.466 1.468.095 1.468.095.096 1.326.096 1.327h3.089v6.245h2.5v8.117h-2.5v3.123H78.906v-1.562Zm3.125-11.395v-1.718h-3.125v3.435h3.125v-1.718Zm-26.25 5.793v-1.579h1.25c1.247 0 1.25-.003 1.25-1.23 0-1.196-.032-1.232-1.172-1.326l-1.172-.097-.09-3.054-.089-3.053 4.12.087 4.12.087.032 2.966.032 2.967-1.328.096c-1.318.095-1.328.105-1.328 1.309 0 1.203.01 1.213 1.328 1.308l1.328.096.096 1.483.095 1.484h-2.847V32.24l-1.484.095-1.484.096v2.809l-1.329.096-1.328.096v-1.579Zm52.5-1.25v-2.792l-1.484-.095-1.485-.095-.089-3.036c-.086-2.942-.067-3.04.625-3.187a6.195 6.195 0 0 1 1.496-.087c.772.064.782.104.87 3.265l.089 3.2h2.478v5.62h-2.5v-2.792ZM14.844 21.972v-1.249h3.125V17.6h2.5v-5.932H14.826l.087-4.137L15 3.394H17.813l.094-1.648.095-1.648 4.124.087 4.124.087.087 4.45.086 4.448h3.108V6.048h8.438V3.55h11.875v2.498H38.003l-.095 1.483-.096 1.483-4.14.087-4.14.087v2.48h-3.126v3.086l-1.328.096c-1.322.096-1.328.103-1.424 1.423l-.096 1.327h-3.089v3.122h-2.5v2.498h-3.125v-1.249Zm87.812 0v-1.249h2.5v2.498h-2.5v-1.249Zm-3.125-2.827v-1.578l1.485.095c1.287.083 1.498.193 1.588.83a4.647 4.647 0 0 1-.084 1.483c-.164.65-.371.748-1.588.748h-1.4v-1.578ZM96.88 17.21c-.074-.215-.175-.812-.225-1.327-.086-.88-.182-.942-1.56-1.031l-1.467-.095-.095-1.466-.094-1.467-1.485-.095-1.484-.095V9.17H82.03V6.062l-5.703-.085-5.703-.085-.097-1.17c-.056-.675.043-1.175.234-1.18.183-.004 2.757-.012 5.722-.017l5.391-.01.096 1.267.096 1.266h8.401V9.17h3.109l.086-4.449.087-4.449 4.297-.087c3.312-.067 4.304.005 4.33.312.019.22.043.891.056 1.492.025 1.277.325 1.55 1.708 1.557l1.015.004V11.645l-2.89.09-2.891.09-.09 2.887-.09 2.888h-1.091c-.601 0-1.152-.175-1.225-.39ZM49.905 1.755 50 .272H70.313l.095 1.483.095 1.483H49.81l.095-1.483Z" fill="#3B3B3F"/></svg>
